X: 1
T: Flaherty's
M: 4/4
L: 1/8
R: hornpipe
K: Dmaj
|: dB | (3ABA FA A,DFA |dced BcdB|(3ABA FA ADFA|BAGF EA,CE|
(3ABA FA A,DFA |dced BcdB|AdcB (3ABA (3GFE| (3DED CE D2:|
|:dc |BABc dcdf|bagf edcd|c<EEF GABd|(3edc (3dcB A2 dB|
(3ABA FA A,DFA |dced BcdB|AdcB (3ABA (3GFE| (3DED CE D2:|
